X:1017
T:Hopetoun House.
M:C
L:1/8
Q:1/4=128
I: || ||
Z:Jack Campin * www.campin.me.uk * 2009
K:E Minor
d|E/E/E B>E d>EB<e|d>BA>F D>EF<A  |E/E/E B>E d>EB<e|d>BAF  {FA}B2E:|
F|E<ee>f    g>efd |B<dA>F D>EF[DA]|E<ee>f    g>efd |B>dF>A {FA}B2EF|
  E<ee<f    g>efd |B>dA>F D>EFD   |g>ef>d    B<de>f|d>BFA  {FA}B2D|]
<end>
<start>
